X: 12141
T: Evit Gabriel
R: reel
M: 4/4
K: Eminor
|:EFGF EFGF|EFGA B2AB|cBAG F2GA|BAGB F4|
EFGF EFGF|EFGA B2AB|cBAG FBGF|EGFD E4:|
|:eAAe dcBc|dGGd cBAG|FGAc BAGF|EFGA B2cd|
eAAe dcBc|dGGd cBAG|FGAc BAGF|GAFG E4:|

